svgs/sharp-regular/object-union.svg

<svg xmlns="http://www.w3.org/2000/svg" viewBox="0 0 512 512"><!--! Font Awesome Pro 6.6.0 by @fontawesome - https://fontawesome.com License - https://fontawesome.com/license (Commercial License) Copyright 2024 Fonticons, Inc. --><path d="M112 352l48 0 0 48 0 64 0 48 48 0 256 0 48 0 0-48 0-256 0-48-48 0-64 0-48 0 0-48 0-64 0-48L304 0 48 0 0 0 0 48 0 304l0 48 48 0 64 0zM48 304L48 48l256 0 0 112 0 48 48 0 112 0 0 256-256 0 0-112 0-48-48 0L48 304z"/></svg>

<svg xmlns="http://www.w3.org/2000/svg" viewBox="0 0 512 512"><!--! Font Awesome Pro 6.4.0 by @fontawesome - https://fontawesome.com License - https://fontawesome.com/license (Commercial License) Copyright 2023 Fonticons, Inc. --><path d="M112 352h48v48 64 48h48H464h48V464 208 160H464 400 352V112 48 0H304 48 0V48 304v48H48h64zM48 304V48H304V160v48h48H464V464H208V352 304H160 48z"/></svg>
